X: 071116
T: Gullane #2
S: "Johnny O'Leary of Sliabh Luachra" (#65)
Z: B.Black
L: 1/8
M: 2/4
Q: 290
R: polka
K: D
B/c/d/B/ AF|A2 AF/A/|B/c/d/B/ AF|E2 E>B|
d>B AF|Ad f/g/f/e/|dB AF/A/|1 D2 D2 :|2 D2 D||
e|: f>d fa|eg f/g/f/e/|fd fa|f2 fe/e/|
f>d fa|eg f/g/f/e/|dB AF/A/|D2 D2 :|
